svgs/thin/glass-half.svg

<svg xmlns="http://www.w3.org/2000/svg" viewBox="0 0 384 512"><!--! Font Awesome Pro 6.0.0-alpha3 by @fontawesome - https://fontawesome.com License - https://fontawesome.com/license (Commercial License) --><path d="M344.4 40.86C339.1 35.17 331.7 32 323.1 32H60.04C52.27 32 44.95 35.17 39.59 40.86c-5.25 5.578-7.982 13.12-7.545 20.89l27.99 392C61.02 468.5 73.27 480 88.03 480h207.9c14.76 0 27.01-11.48 27.99-26.25l27.99-392C352.4 53.98 349.7 46.44 344.4 40.86zM307.1 452.7C307.6 459 302.3 464 295.1 464H88.03c-6.322 0-11.61-4.969-12.03-11.39L63.1 272h257.8L307.1 452.7zM322 256H61.96L48.02 60.85C47.83 57.49 49 54.2 51.23 51.83C53.56 49.36 56.69 48 60.04 48h263.9c3.348 0 6.475 1.359 8.797 3.824c2.236 2.379 3.41 5.668 3.236 8.785L322 256z"/></svg>

<svg xmlns="http://www.w3.org/2000/svg" viewBox="0 0 384 512"><!-- Font Awesome Pro 6.0.0-alpha2 by @fontawesome - https://fontawesome.com License - https://fontawesome.com/license (Commercial License) --><path d="M344.411 40.859C339.051 35.172 331.727 32 323.963 32H60.038C52.274 32 44.95 35.172 39.59 40.859C34.34 46.438 31.608 53.984 32.046 61.75L60.038 453.75C61.022 468.516 73.268 480 88.03 480H295.971C310.733 480 322.979 468.516 323.963 453.75L351.956 61.75C352.393 53.984 349.661 46.438 344.411 40.859ZM307.999 452.688C307.577 459.031 302.294 464 295.971 464H88.03C81.708 464 76.424 459.031 75.997 452.609L63.098 272H320.901L307.999 452.688ZM322.044 256H61.956L48.02 60.852C47.831 57.492 49.004 54.203 51.235 51.832C53.563 49.359 56.69 48 60.038 48H323.963C327.311 48 330.438 49.359 332.76 51.824C334.997 54.203 336.171 57.492 335.997 60.609L322.044 256Z"/></svg>
